src/assets/icon/locked.svg

<svg width="100" height="100" viewBox="0 0 100 100" fill="none" xmlns="http://www.w3.org/2000/svg">
<g id="locked">
<mask id="mask0_1250_12808" style="mask-type:alpha" maskUnits="userSpaceOnUse" x="0" y="0" width="100" height="100">
<rect id="Bounding box" width="100" height="100" fill="#D9D9D9"/>
</mask>
<g mask="url(#mask0_1250_12808)">
<path id="lock_2" d="M21.3129 99.7891C18.6938 99.7891 16.4518 98.8565 14.5867 96.9914C12.7216 95.1264 11.7891 92.8843 11.7891 90.2653V42.6462C11.7891 40.0272 12.7216 37.7851 14.5867 35.92C16.4518 34.0549 18.6938 33.1224 21.3129 33.1224H26.0748V23.5986C26.0748 17.0113 28.3962 11.3962 33.0391 6.75335C37.6819 2.11049 43.297 -0.210938 49.8843 -0.210938C56.4716 -0.210938 62.0867 2.11049 66.7295 6.75335C71.3724 11.3962 73.6938 17.0113 73.6938 23.5986V33.1224H78.4557C81.0748 33.1224 83.3168 34.0549 85.1819 35.92C87.047 37.7851 87.9795 40.0272 87.9795 42.6462V90.2653C87.9795 92.8843 87.047 95.1264 85.1819 96.9914C83.3168 98.8565 81.0748 99.7891 78.4557 99.7891H21.3129ZM21.3129 90.2653H78.4557V42.6462H21.3129V90.2653ZM49.8843 75.9795C52.5033 75.9795 54.7454 75.047 56.6105 73.1819C58.4756 71.3168 59.4081 69.0748 59.4081 66.4557C59.4081 63.8367 58.4756 61.5946 56.6105 59.7295C54.7454 57.8645 52.5033 56.9319 49.8843 56.9319C47.2653 56.9319 45.0232 57.8645 43.1581 59.7295C41.293 61.5946 40.3605 63.8367 40.3605 66.4557C40.3605 69.0748 41.293 71.3168 43.1581 73.1819C45.0232 75.047 47.2653 75.9795 49.8843 75.9795ZM35.5986 33.1224H64.17V23.5986C64.17 19.6303 62.7811 16.2573 60.0033 13.4795C57.2256 10.7018 53.8526 9.31287 49.8843 9.31287C45.916 9.31287 42.543 10.7018 39.7653 13.4795C36.9875 16.2573 35.5986 19.6303 35.5986 23.5986V33.1224Z" fill="#F5F1EE"/>
</g>
</g>
</svg>

<svg xmlns="http://www.w3.org/2000/svg" width="100" height="100" fill="none" xmlns:v="https://vecta.io/nano"><mask id="A" maskUnits="userSpaceOnUse" x="0" y="0" width="100" height="100" mask-type="alpha"><path fill="#d9d9d9" d="M0 0h100v100H0z"/></mask><g mask="url(#A)"><path d="M21.313 99.789c-2.619 0-4.861-.933-6.726-2.798s-2.798-4.107-2.798-6.726V42.646c0-2.619.933-4.861 2.798-6.726s4.107-2.798 6.726-2.798h4.762v-9.524c0-6.587 2.321-12.202 6.964-16.845S43.297-.211 49.884-.211 62.087 2.11 66.73 6.753s6.964 10.258 6.964 16.845v9.524h4.762c2.619 0 4.861.933 6.726 2.798s2.798 4.107 2.798 6.726v47.619c0 2.619-.933 4.861-2.798 6.726s-4.107 2.798-6.726 2.798H21.313zm0-9.524h57.143V42.646H21.313v47.619zM49.884 75.98c2.619 0 4.861-.933 6.726-2.798s2.798-4.107 2.798-6.726-.932-4.861-2.798-6.726-4.107-2.798-6.726-2.798-4.861.933-6.726 2.798-2.798 4.107-2.798 6.726.932 4.861 2.798 6.726 4.107 2.798 6.726 2.798zM35.599 33.122H64.17v-9.524c0-3.968-1.389-7.341-4.167-10.119s-6.151-4.167-10.119-4.167-7.341 1.389-10.119 4.167-4.167 6.151-4.167 10.119v9.524z" fill="#f5f1ee"/></g></svg>
